Newaita-dark/actions/32/media-show-active-track-amarok.svg

<svg height="32" viewBox="0 0 32 32" width="32" xmlns="http://www.w3.org/2000/svg"><g fill="#e0e0e0"><path d="m5.953125 2.894531c-1.832031 0-3.308594 1.476563-3.308594 3.308594s1.476563 3.308594 3.308594 3.308594 3.308594-1.476563 3.308594-3.308594-1.476563-3.308594-3.308594-3.308594zm0 1.324219c1.101563 0 1.984375.886719 1.984375 1.984375 0 1.101563-.882812 1.984375-1.984375 1.984375-1.097656 0-1.984375-.882812-1.984375-1.984375 0-1.097656.886719-1.984375 1.984375-1.984375zm0 0"/><path d="m28.445312 7.527344h-16.539062c-.363281 0-.660156-.296875-.660156-.660156v-1.324219c0-.367188.296875-.664063.660156-.664063h16.539062c.367188 0 .660157.296875.660157.664063v1.324219c0 .363281-.292969.660156-.660157.660156zm0 0"/><path d="m5.953125 12.820312c-1.832031 0-3.308594 1.472657-3.308594 3.304688s1.476563 3.308594 3.308594 3.308594 3.308594-1.476563 3.308594-3.308594-1.476563-3.304688-3.308594-3.304688zm0 0"/><path d="m28.445312 17.449219h-16.539062c-.363281 0-.660156-.296875-.660156-.660157v-1.324218c0-.363282.296875-.660156.660156-.660156h16.539062c.367188 0 .660157.296874.660157.660156v1.324218c0 .363282-.292969.660157-.660157.660157zm0 0"/><path d="m5.953125 22.742188c-1.832031 0-3.308594 1.476562-3.308594 3.308593s1.476563 3.304688 3.308594 3.304688 3.308594-1.472657 3.308594-3.304688-1.476563-3.308593-3.308594-3.308593zm0 1.324218c1.101563 0 1.984375.882813 1.984375 1.984375 0 1.097657-.882812 1.984375-1.984375 1.984375-1.097656 0-1.984375-.886718-1.984375-1.984375 0-1.101562.886719-1.984375 1.984375-1.984375zm0 0"/><path d="m28.445312 27.371094h-16.539062c-.363281 0-.660156-.292969-.660156-.660156v-1.324219c0-.363281.296875-.660157.660156-.660157h16.539062c.367188 0 .660157.296876.660157.660157v1.324219c0 .367187-.292969.660156-.660157.660156zm0 0"/></g></svg>

<svg xmlns="http://www.w3.org/2000/svg" xmlns:xlink="http://www.w3.org/1999/xlink" width="32px" height="32px" viewBox="0 0 32 32" version="1.1">
<g id="surface1">
     <defs>
  <style id="current-color-scheme" type="text/css">
   .ColorScheme-Text { color:#eeeeee; } .ColorScheme-Highlight { color:#424242; }
  </style>
 </defs>
<path style="fill:currentColor" class="ColorScheme-Text" d="M 5.953125 2.894531 C 4.121094 2.894531 2.644531 4.371094 2.644531 6.203125 C 2.644531 8.035156 4.121094 9.511719 5.953125 9.511719 C 7.785156 9.511719 9.261719 8.035156 9.261719 6.203125 C 9.261719 4.371094 7.785156 2.894531 5.953125 2.894531 Z M 5.953125 4.21875 C 7.054688 4.21875 7.9375 5.105469 7.9375 6.203125 C 7.9375 7.304688 7.054688 8.1875 5.953125 8.1875 C 4.855469 8.1875 3.96875 7.304688 3.96875 6.203125 C 3.96875 5.105469 4.855469 4.21875 5.953125 4.21875 Z M 5.953125 4.21875 "/>
     <defs>
  <style id="current-color-scheme" type="text/css">
   .ColorScheme-Text { color:#eeeeee; } .ColorScheme-Highlight { color:#424242; }
  </style>
 </defs>
<path style="fill:currentColor" class="ColorScheme-Text" d="M 28.445312 7.527344 L 11.90625 7.527344 C 11.542969 7.527344 11.246094 7.230469 11.246094 6.867188 L 11.246094 5.542969 C 11.246094 5.175781 11.542969 4.878906 11.90625 4.878906 L 28.445312 4.878906 C 28.8125 4.878906 29.105469 5.175781 29.105469 5.542969 L 29.105469 6.867188 C 29.105469 7.230469 28.8125 7.527344 28.445312 7.527344 Z M 28.445312 7.527344 "/>
     <defs>
  <style id="current-color-scheme" type="text/css">
   .ColorScheme-Text { color:#eeeeee; } .ColorScheme-Highlight { color:#424242; }
  </style>
 </defs>
<path style="fill:currentColor" class="ColorScheme-Text" d="M 5.953125 12.820312 C 4.121094 12.820312 2.644531 14.292969 2.644531 16.125 C 2.644531 17.957031 4.121094 19.433594 5.953125 19.433594 C 7.785156 19.433594 9.261719 17.957031 9.261719 16.125 C 9.261719 14.292969 7.785156 12.820312 5.953125 12.820312 Z M 5.953125 12.820312 "/>
     <defs>
  <style id="current-color-scheme" type="text/css">
   .ColorScheme-Text { color:#eeeeee; } .ColorScheme-Highlight { color:#424242; }
  </style>
 </defs>
<path style="fill:currentColor" class="ColorScheme-Text" d="M 28.445312 17.449219 L 11.90625 17.449219 C 11.542969 17.449219 11.246094 17.152344 11.246094 16.789062 L 11.246094 15.464844 C 11.246094 15.101562 11.542969 14.804688 11.90625 14.804688 L 28.445312 14.804688 C 28.8125 14.804688 29.105469 15.101562 29.105469 15.464844 L 29.105469 16.789062 C 29.105469 17.152344 28.8125 17.449219 28.445312 17.449219 Z M 28.445312 17.449219 "/>
     <defs>
  <style id="current-color-scheme" type="text/css">
   .ColorScheme-Text { color:#eeeeee; } .ColorScheme-Highlight { color:#424242; }
  </style>
 </defs>
<path style="fill:currentColor" class="ColorScheme-Text" d="M 5.953125 22.742188 C 4.121094 22.742188 2.644531 24.21875 2.644531 26.050781 C 2.644531 27.882812 4.121094 29.355469 5.953125 29.355469 C 7.785156 29.355469 9.261719 27.882812 9.261719 26.050781 C 9.261719 24.21875 7.785156 22.742188 5.953125 22.742188 Z M 5.953125 24.066406 C 7.054688 24.066406 7.9375 24.949219 7.9375 26.050781 C 7.9375 27.148438 7.054688 28.035156 5.953125 28.035156 C 4.855469 28.035156 3.96875 27.148438 3.96875 26.050781 C 3.96875 24.949219 4.855469 24.066406 5.953125 24.066406 Z M 5.953125 24.066406 "/>
     <defs>
  <style id="current-color-scheme" type="text/css">
   .ColorScheme-Text { color:#eeeeee; } .ColorScheme-Highlight { color:#424242; }
  </style>
 </defs>
<path style="fill:currentColor" class="ColorScheme-Text" d="M 28.445312 27.371094 L 11.90625 27.371094 C 11.542969 27.371094 11.246094 27.078125 11.246094 26.710938 L 11.246094 25.386719 C 11.246094 25.023438 11.542969 24.726562 11.90625 24.726562 L 28.445312 24.726562 C 28.8125 24.726562 29.105469 25.023438 29.105469 25.386719 L 29.105469 26.710938 C 29.105469 27.078125 28.8125 27.371094 28.445312 27.371094 Z M 28.445312 27.371094 "/>
</g>
</svg>
